icons/desktop/20/thumbs-down-20.svg

<svg width="20" height="20" viewBox="0 0 20 20" fill="none" xmlns="http://www.w3.org/2000/svg">
<g clip-path="url(#clip0_8069_32739)">
<path fill-rule="evenodd" clip-rule="evenodd" d="M3.5 1.5C4.15293 1.5 4.70703 1.91766 4.91309 2.5H9.76758C11.5724 2.57299 13.3956 2.7112 15.1875 2.90918C15.9945 2.99918 16.7298 3.40099 17.2568 4.04395C18.2988 5.31795 19.0596 6.76013 19.5176 8.32812C19.8625 9.51002 20.025 10.7358 20 11.9717C19.966 13.5847 18.6775 14.9178 17.0645 15.0068C16.3997 15.0428 15.706 15.0644 14.9873 15.0645C14.3273 15.0635 13.6505 15.0467 12.9775 15.0117V17.3643C12.9774 18.8171 11.7947 20 10.3418 20H10.0273C9.14534 20 8.34384 19.4459 8.00684 18.5469C7.67689 17.3521 7.23528 16.1822 6.69141 15.0693C6.31448 14.2955 5.88313 13.5403 5.40625 12.8154L4.96973 12.8018C4.83007 13.4856 4.22507 14 3.5 14H1.5C0.671573 14 0 13.3284 0 12.5V3C0 2.17157 0.671573 1.5 1.5 1.5H3.5ZM5 11.0508L5.9082 11.0801C6.18604 11.0892 6.44265 11.2292 6.59961 11.458C7.22455 12.3639 7.78373 13.3199 8.2627 14.3018C8.85368 15.5117 9.33495 16.7829 9.66895 18.0039C9.72395 18.1509 9.86837 18.25 10.0264 18.25H10.3408C10.8297 18.25 11.2264 17.8521 11.2266 17.3643V14.0791C11.2266 13.8341 11.3278 13.6015 11.5068 13.4365C11.6848 13.2706 11.926 13.186 12.1689 13.207C13.0768 13.276 13.9917 13.3124 14.8896 13.3145C15.6316 13.3135 16.3048 13.2958 16.9678 13.2588C17.6718 13.2208 18.234 12.6395 18.248 11.9365C18.27 10.8788 18.1308 9.83009 17.8359 8.81934C17.444 7.47851 16.7932 6.24422 15.9004 5.15332C15.6665 4.8684 15.3441 4.68846 14.9922 4.65039C13.2412 4.45639 11.4585 4.321 9.72949 4.25H5V11.0508Z" fill="black"/>
</g>
<defs>
<clipPath id="clip0_8069_32739">
<rect width="20" height="20" fill="white"/>
</clipPath>
</defs>
</svg>

<!-- This Source Code Form is subject to the terms of the Mozilla Public
   - License, v. 2.0. If a copy of the MPL was not distributed with this
   - file, You can obtain one at http://mozilla.org/MPL/2.0/. -->
<svg xmlns="http://www.w3.org/2000/svg" width="20" height="20" fill="context-fill" fill-opacity="context-fill-opacity" viewBox="0 0 20 20">
    <g clip-path="url(#clip0_8069_32739)">
        <path fill-rule="evenodd" d="M3.5 1.5a1.5 1.5 0 0 1 1.413 1h4.855c1.804.073 3.628.211 5.42.41.806.09 1.542.491 2.069 1.134A12.1 12.1 0 0 1 20 11.972a3.12 3.12 0 0 1-2.936 3.035 39 39 0 0 1-4.087.005v2.352A2.64 2.64 0 0 1 10.343 20h-.315c-.882 0-1.683-.554-2.02-1.453a20.2 20.2 0 0 0-2.6-5.732l-.437-.013A1.5 1.5 0 0 1 3.5 14h-2A1.5 1.5 0 0 1 0 12.5V3a1.5 1.5 0 0 1 1.5-1.5zM5 11.05l.908.03c.278.01.535.15.692.378a22 22 0 0 1 1.663 2.844 21.5 21.5 0 0 1 1.406 3.702c.055.147.2.246.357.246h.315a.887.887 0 0 0 .886-.886V14.08a.87.87 0 0 1 .942-.872 37 37 0 0 0 2.72.107 38 38 0 0 0 2.079-.055 1.36 1.36 0 0 0 1.28-1.322A10.35 10.35 0 0 0 15.9 5.153a1.37 1.37 0 0 0-.908-.503 77 77 0 0 0-5.263-.4H5z" clip-rule="evenodd" />
    </g>
</svg>
